X:227
T:Three jovial welshmen - Fry
%%VWML:SBG-1-2-105-0
F:http://www.vwml.org/record/SBG/1/2/105
Z:Original Sibelius transcriptions by M. & S. Graebe
M:2/4
I:linebreak $
K:C
V:1 treble nm="P1"
V:1
 G |[K:C] c c e d/c/ | c2 G E | F F G G | C2 c | d d d d | d B2 c |$ d c B A | G3 G/ G/ | %9
w: |were three jo- vi- al|Welsh- men, they|would go hunt the|fox They|swore they saw old|Rey- nard run|o- ver yon- der|rocks. With my|
 c c e d/ c/ | c G z E/ E/ | F F/ F/ G/F/ E/F/ | G3 B/ c/ |$ d d d c/ d/ | e3/4 d/4 c3/4 B/4 A G | %15
w: whoop! whoop! whoop! and a|hal- loo! and a|blast of my bu- * gle _|horn. With my|twang, twang, twang And my|twan- ki- did- dle oh! And|
 f3/2 f/ e d |$ c G E G | f3/2 f/ e d | c3 G/ G/ |$ c3/4 B/4 A3/4 G/4 c2 | E3 E/ E/ | F E/ F/ G E | %22
w: through the woods we'll|ride, brave boys! and|through the woods we'll|ride with my|u- gle, u- gle, u-|gle and a|blast of my merry _|
 C3 B/ c/ | d d d c/ d/ |$ e3/4 d/4 c3/4 B/4 A G | f3/2 f/ e d | c G E G | f3/2 f/ e d | c4 | %29
w: horn with my|fal- lal- tal, and my|fal- de- rid- dle O! and|through the woods we'll|ride brave boys and|through the woods we'll|ride.|
T:Three jovial welshmen - Lethbridge
F:http://www.vwml.org/record/SBG/1/2/105
Z:Original Sibelius transcriptions by M. & S. Graebe
M:4/4
I:linebreak $
K:Bb
V:1 treble nm="P1"
V:1
 F2 | FBBB BAGF | F BBB B2 F2 | FBBB Bd !fermata!f d |$ c B AG F2 AB | c2 B2 A2 G2 | cBAG F2 ED | %7
w: There|were three jol- ly Wel- sh- men, As|I've heard peo- ple say; And|they would go a hunt- * ing, u-|pon S. Dav- id's day. And a|hunt- ing they did|go, did, go, did go. And a|
 E2 G2 F2 A2 | B6 x2 | %9
w: hunt- ing they did|go!|

